jsapp/svg-icons/qt-area-lock.svg

<svg height="642" viewBox="0 0 642 642" width="642" xmlns="http://www.w3.org/2000/svg"><path d="m517.18 441.29h-.36v-.2c.034685-.059814.078553-.113805.13-.16h.05c.079919.036077.143923.100081.18.18zm-165.18 66.78c.026145-26.59129 15.80069-50.641779 40.18-61.26v-5.71c.007544-37.307002 16.699588-72.655494 45.504415-96.364023s66.703309-33.292126 103.315585-26.125977v-170.47c-.011037-26.03013-21.10987-47.128963-47.14-47.14h-345.72c-26.03013.011037-47.128963 21.10987-47.14 47.14v345.72c.011037 26.03013 21.10987 47.128963 47.14 47.14h203.86zm290 0v107.14c0 14.795708-11.994292 26.79-26.79 26.79h-196.42c-14.795708 0-26.79-11.994292-26.79-26.79v-107.14c0-14.795708 11.994292-26.79 26.79-26.79h13.39v-40.17c0-46.844792 37.975208-84.82 84.82-84.82s84.82 37.975208 84.82 84.82v40.18h13.39c14.791804 0 26.784479 11.988197 26.79 26.78zm-97.91 52c0-14.746003-11.953997-26.7-26.7-26.7s-26.7 11.953997-26.7 26.7 11.953997 26.7 26.7 26.7c14.730396 0 26.677932-11.929621 26.7-26.66zm13.09-119c0-22.190801-17.989199-40.18-40.18-40.18s-40.18 17.989199-40.18 40.18v40.18h80.36z"/></svg>

<svg id="Layer_1" data-name="Layer 1" xmlns="http://www.w3.org/2000/svg" viewBox="0 0 642 642"><path d="M517.18,441.11v.18h-.36v-.2a.66.66,0,0,1,.13-.16H517A.36.36,0,0,1,517.18,441.11ZM352,508.07a66.89,66.89,0,0,1,40.18-61.26v-5.71A124.84,124.84,0,0,1,541,318.61V148.14A47.16,47.16,0,0,0,493.86,101H148.14A47.16,47.16,0,0,0,101,148.14V493.86A47.16,47.16,0,0,0,148.14,541H352Zm290,0V615.21A26.79,26.79,0,0,1,615.21,642H418.79A26.79,26.79,0,0,1,392,615.21V508.07a26.79,26.79,0,0,1,26.79-26.79h13.39V441.11a84.82,84.82,0,0,1,169.64,0v40.18h13.39A26.79,26.79,0,0,1,642,508.07Zm-97.91,52a26.7,26.7,0,1,0-26.7,26.7A26.7,26.7,0,0,0,544.09,560.11Zm13.09-119a40.18,40.18,0,1,0-80.36,0v40.18h80.36Z"/></svg>
